src/lib/packages/icons/src/assets/filled/settings.svg

<svg width="24" height="24" viewBox="0 0 24 24" fill="none" xmlns="http://www.w3.org/2000/svg">
<path d="M20.83 14.6C19.9 14.06 19.33 13.07 19.33 12C19.33 10.93 19.9 9.93999 20.83 9.39999C20.99 9.29999 21.05 9.1 20.95 8.94L19.28 6.06C19.22 5.95 19.11 5.89001 19 5.89001C18.94 5.89001 18.88 5.91 18.83 5.94C18.37 6.2 17.85 6.34 17.33 6.34C16.8 6.34 16.28 6.19999 15.81 5.92999C14.88 5.38999 14.31 4.41 14.31 3.34C14.31 3.15 14.16 3 13.98 3H10.02C9.83999 3 9.69 3.15 9.69 3.34C9.69 4.41 9.12 5.38999 8.19 5.92999C7.72 6.19999 7.20001 6.34 6.67001 6.34C6.15001 6.34 5.63001 6.2 5.17001 5.94C5.01001 5.84 4.81 5.9 4.72 6.06L3.04001 8.94C3.01001 8.99 3 9.05001 3 9.10001C3 9.22001 3.06001 9.32999 3.17001 9.39999C4.10001 9.93999 4.67001 10.92 4.67001 11.99C4.67001 13.07 4.09999 14.06 3.17999 14.6H3.17001C3.01001 14.7 2.94999 14.9 3.04999 15.06L4.72 17.94C4.78 18.05 4.89 18.11 5 18.11C5.06 18.11 5.12001 18.09 5.17001 18.06C6.11001 17.53 7.26 17.53 8.19 18.07C9.11 18.61 9.67999 19.59 9.67999 20.66C9.67999 20.85 9.82999 21 10.02 21H13.98C14.16 21 14.31 20.85 14.31 20.66C14.31 19.59 14.88 18.61 15.81 18.07C16.28 17.8 16.8 17.66 17.33 17.66C17.85 17.66 18.37 17.8 18.83 18.06C18.99 18.16 19.19 18.1 19.28 17.94L20.96 15.06C20.99 15.01 21 14.95 21 14.9C21 14.78 20.94 14.67 20.83 14.6ZM12 15C10.34 15 9 13.66 9 12C9 10.34 10.34 9 12 9C13.66 9 15 10.34 15 12C15 13.66 13.66 15 12 15Z" fill="currentColor"/>
</svg>

<svg xmlns="http://www.w3.org/2000/svg" width="24" height="24" fill="none"><path fill="currentColor" d="M20.83 14.6c-.93-.54-1.5-1.53-1.5-2.6s.57-2.06 1.5-2.6c.16-.1.22-.3.12-.46l-1.67-2.88a.32.32 0 0 0-.28-.17c-.06 0-.12.02-.17.05-.46.26-.98.4-1.5.4-.53 0-1.05-.14-1.52-.41a2.99 2.99 0 0 1-1.5-2.59c0-.19-.15-.34-.33-.34h-3.96c-.18 0-.33.15-.33.34 0 1.07-.57 2.05-1.5 2.59-.47.27-.99.41-1.52.41-.52 0-1.04-.14-1.5-.4a.319.319 0 0 0-.45.12L3.04 8.94c-.03.05-.04.11-.04.16 0 .12.06.23.17.3.93.54 1.5 1.52 1.5 2.59 0 1.08-.57 2.07-1.49 2.61h-.01c-.16.1-.22.3-.12.46l1.67 2.88c.06.11.17.17.28.17.06 0 .12-.02.17-.05.94-.53 2.09-.53 3.02.01.92.54 1.49 1.52 1.49 2.59 0 .19.15.34.34.34h3.96c.18 0 .33-.15.33-.34 0-1.07.57-2.05 1.5-2.59.47-.27.99-.41 1.52-.41.52 0 1.04.14 1.5.4.16.1.36.04.45-.12l1.68-2.88c.03-.05.04-.11.04-.16 0-.12-.06-.23-.17-.3ZM12 15c-1.66 0-3-1.34-3-3s1.34-3 3-3 3 1.34 3 3-1.34 3-3 3Z"/></svg>
